svg/media/volume_off_line.svg

<?xml version="1.0" encoding="UTF-8"?>
<svg width="24px" height="24px" viewBox="0 0 24 24" version="1.1" xmlns="http://www.w3.org/2000/svg" xmlns:xlink="http://www.w3.org/1999/xlink">
    <title>volume_off_line</title>
    <g id="页面-1" stroke="none" stroke-width="1" fill="none" fill-rule="evenodd">
        <g id="Media" transform="translate(-672.000000, -96.000000)">
            <g id="volume_off_line" transform="translate(672.000000, 96.000000)">
                 <path d="M24,0 L24,24 L0,24 L0,0 L24,0 Z M12.5934901,23.257841 L12.5819402,23.2595131 L12.5108777,23.2950439 L12.4918791,23.2987469 L12.4918791,23.2987469 L12.4767152,23.2950439 L12.4056548,23.2595131 C12.3958229,23.2563662 12.3870493,23.2590235 12.3821421,23.2649074 L12.3780323,23.275831 L12.360941,23.7031097 L12.3658947,23.7234994 L12.3769048,23.7357139 L12.4804777,23.8096931 L12.4953491,23.8136134 L12.4953491,23.8136134 L12.5071152,23.8096931 L12.6106902,23.7357139 L12.6232938,23.7196733 L12.6232938,23.7196733 L12.6266527,23.7031097 L12.609561,23.275831 C12.6075724,23.2657013 12.6010112,23.2592993 12.5934901,23.257841 L12.5934901,23.257841 Z M12.8583906,23.1452862 L12.8445485,23.1473072 L12.6598443,23.2396597 L12.6498822,23.2499052 L12.6498822,23.2499052 L12.6471943,23.2611114 L12.6650943,23.6906389 L12.6699349,23.7034178 L12.6699349,23.7034178 L12.678386,23.7104931 L12.8793402,23.8032389 C12.8914285,23.8068999 12.9022333,23.8029875 12.9078286,23.7952264 L12.9118235,23.7811639 L12.8776777,23.1665331 C12.8752882,23.1545897 12.8674102,23.1470016 12.8583906,23.1452862 L12.8583906,23.1452862 Z M12.1430473,23.1473072 C12.1332178,23.1423925 12.1221763,23.1452606 12.1156365,23.1525954 L12.1099173,23.1665331 L12.0757714,23.7811639 C12.0751323,23.7926639 12.0828099,23.8018602 12.0926481,23.8045676 L12.108256,23.8032389 L12.3092106,23.7104931 L12.3186497,23.7024347 L12.3186497,23.7024347 L12.3225043,23.6906389 L12.340401,23.2611114 L12.337245,23.2485176 L12.337245,23.2485176 L12.3277531,23.2396597 L12.1430473,23.1473072 Z" id="MingCute" fill-rule="nonzero"></path>
                <path d="M4.59604,8 L6.59604,10 L4,10 L4,14 L6.67953,14 C7.09638,14 7.50281,14.1302 7.84201,14.3725 L13,18.0568 L13,16.404 L15,18.404 L15,19.8057 C15,20.7004 13.9887,21.2208 13.2606,20.7008 L6.67953,16 L4,16 C2.89543,16 2,15.1046 2,14 L2,10 C2,8.89543 2.89543,8 4,8 L4.59604,8 Z M13.2606,3.29921 C13.9570435,2.80178043 14.9125962,3.25632123 14.9943712,4.07979597 L15,4.19432 L15,13.5857 L16.1133,14.699 C15.9250273,14.3390909 15.9729529,13.8927355 16.2448304,13.5804448 L16.3331,13.491 C16.7438,13.1233 17,12.5922 17,12 C17,11.46693 16.792478,10.983513 16.4515733,10.624107 L16.3331,10.509 C15.9216,10.1407 15.8865,9.50849 16.2549,9.09696 C16.6232,8.68544 17.2554,8.65042 17.6669,9.01874 C18.4836,9.74974 19,10.8152 19,12 C19,13.1847 18.4836,14.2502 17.6669,14.9812 C17.3831667,15.2351556 16.9945049,15.2973481 16.6597823,15.1766272 L16.5371,15.1228 L18.0072,16.5929 C17.9694,16.2796 18.0801,15.9535 18.3331,15.7271 C19.3576,14.8101 20,13.4807 20,12 C20,10.5193 19.3576,9.18989 18.3331,8.27293 C17.9216,7.9046 17.8865,7.27241 18.2549,6.86088 C18.6232,6.44935 19.2554,6.41433 19.6669,6.78266 C21.0974,8.06298 22,9.92675 22,12 C22,14.0733 21.0974,15.937 19.6669,17.2174 C19.4754143,17.3887429 19.2361735,17.4728041 18.9979822,17.4722286 L18.8792,17.4649 L20.4854,19.0711 C20.8759,19.4616 20.8759,20.0948 20.4854,20.4853 C20.1249385,20.8457615 19.5576793,20.8734893 19.1654027,20.5684834 L19.0712,20.4853 L3.51482,4.92894 C3.12429,4.53841 3.12429,3.90525 3.51482,3.51473 C3.8753,3.15424077 4.44253503,3.12651083 4.8348235,3.43154018 L4.92903,3.51473 L8.27482,6.86051 L13.2606,3.29921 Z M13,5.94319 L9.70854,8.29423 L13,11.5857 L13,5.94319 Z" id="形状" fill="#09244B"></path>
            </g>
        </g>
    </g>
</svg>

<svg xmlns="http://www.w3.org/2000/svg" width="24" height="24"><g fill="none" fill-rule="evenodd"><path d="M24 0v24H0V0h24ZM12.593 23.258l-.011.002-.071.035-.02.004-.014-.004-.071-.035c-.01-.004-.019-.001-.024.005l-.004.01-.017.428.005.02.01.013.104.074.015.004.012-.004.104-.074.012-.016.004-.017-.017-.427c-.002-.01-.009-.017-.017-.018Zm.265-.113-.013.002-.185.093-.01.01-.003.011.018.43.005.012.008.007.201.093c.012.004.023 0 .029-.008l.004-.014-.034-.614c-.003-.012-.01-.02-.02-.022Zm-.715.002a.023.023 0 0 0-.027.006l-.006.014-.034.614c0 .012.007.02.017.024l.015-.002.201-.093.01-.008.004-.011.017-.43-.003-.012-.01-.01-.184-.092Z"/><path fill="#09244B" d="m4.596 8 2 2H4v4h2.68a2 2 0 0 1 1.162.373L13 18.057v-1.653l2 2v1.402a1.1 1.1 0 0 1-1.74.895L6.68 16H4a2 2 0 0 1-2-2v-4a2 2 0 0 1 2-2h.596Zm8.665-4.7a1.1 1.1 0 0 1 1.733.78l.006.114v9.392l1.113 1.113a1 1 0 0 1 .132-1.119l.088-.089c.41-.368.667-.899.667-1.491a1.99 1.99 0 0 0-.548-1.376l-.119-.115a1 1 0 1 1 1.334-1.49A3.993 3.993 0 0 1 19 12c0 1.185-.516 2.25-1.333 2.981a1 1 0 0 1-1.007.196l-.123-.054 1.47 1.47a.999.999 0 0 1 .326-.866A4.985 4.985 0 0 0 20 12c0-1.48-.642-2.81-1.667-3.727a1 1 0 1 1 1.334-1.49A6.985 6.985 0 0 1 22 12a6.985 6.985 0 0 1-2.333 5.217.996.996 0 0 1-.669.255l-.119-.007 1.606 1.606a1 1 0 0 1-1.32 1.497l-.094-.083L3.515 4.93a1 1 0 0 1 1.32-1.497l.094.083L8.275 6.86l4.986-3.562ZM13 5.942 9.709 8.294 13 11.586V5.943Z"/></g></svg>
